X: 1
T: The Bus To Mullahoran
R: reel
M: 4/4
L: 1/8
K: Dmaj
E|:D2DE FDFA|B2BA BAFE|D2DE FAAF|GFEF DB,B,2|
D2DE FDFA|B2BA Bdde|fdef dBAF|AFEF (D2D2):|
|:fdef dBAF|AFED DEFG|Add2 faaf|gfed B2AB|
D2DE FDFA|B2BA Bdde|fdef dBAF|AFEF (D2D2):|

composer: Vincent Broderick
